!!!COM:	Bach, Johann Sebastian
!!!CDT:	1685/02/21/-1750/07/28/
!!!OTL@@DE:	Sei gegr&uuml;&szlig;et, Jesu g&uuml;tig
!!!SCT:	BWV 410
!!!PC#:	172
!!!AGN:	chorale
**kern	**kern	**kern	**kern
*ICvox	*ICvox	*ICvox	*ICvox
*Ibass	*Itenor	*Ialto	*Isoprn
*I"Bass	*I"Tenor	*I"Alto	*I"Soprano
*clefF4	*clefGv2	*clefG2	*clefG2
*k[b-e-]	*k[b-e-]	*k[b-e-]	*k[b-e-]
*g:	*g:	*g:	*g:
*M4/4	*M4/4	*M4/4	*M4/4
*met(c)	*met(c)	*met(c)	*met(c)
*MM100	*MM100	*MM100	*MM100
=1-	=1-	=1-	=1-
4G	4B-	4d	4g
4F#	[4A	4d	4a
4.G	8AL]	4d	4b-
.	16GL	.	.
.	16F#JJ	.	.
.	4G	4d	4b-
8F	.	.	.
=2	=2	=2	=2
4E-	8GL	8gL	4cc
.	8A	8f#J	.
8DL	8B-	4g	4b-
8CJ	8GJ	.	.
4D	4d	4g	4a
4D;	4d;	4f#;	4a;
=3	=3	=3	=3
4G	4d	4g	4b-
4A	[4c	4fnX	4cc
4.B-	8cL]	4f	4dd
.	16B-L	.	.
.	16AJJ	.	.
.	4B-	4f	4dd
8A	.	.	.
=4	=4	=4	=4
4G	4B-	8e-L	4ee-
.	.	8fJ	.
4E-	4B-	4g	8ddL
.	.	.	8ccJ
4F	4B-	2f	2cc
4FF	4A	.	.
=5	=5	=5	=5
2BB-;	2d;	2f;	2b-;
4B-	4B-	4f	4dd
4A	[4c	4f	4cc
=6	=6	=6	=6
8B-L	4c]	4f	4dd
8A	.	.	.
8G	4B-	4b-	4dd
8FJ	.	.	.
8E-L	8gL	8b-L	4cc
8C	8e-J	8aJ	.
8D	4f	4b-	4b-
8BB-J	.	.	.
=7	=7	=7	=7
4F	4f	4b-	4cc
4FF;	4f;	4a;	4cc;
4F	4f	4a	4cc
4BB	4f	4g	4dd
=8	=8	=8	=8
8CL	8e-L	4g	4ee-
8D	8dJ	.	.
8E-	4c	4g	4ee-
8FJ	.	.	.
4G	4B	8gL	4dd
.	.	8fJ	.
8A-L	4c	4e-	8ccL
8GJ	.	.	8ddJ
=9	=9	=9	=9
4F	4c	4a-	2dd
4G	4B	8gL	.
.	.	8fJ	.
2C;	2G;	2e-;	2cc;
=10	=10	=10	=10
4c	4c	4e-	4g
4F#	4c	4d	4anX
4G	4B-X	8dL	4b-
.	.	8e-J	.
4D	[4B-	4f	4b-
=11	=11	=11	=11
4E-	4B-]	4g	4cc
4F	4A	4f	4cc
2BB-;	4B-	4f	4dd
.	4B-;	4f;	4dd;
=12	=12	=12	=12
4FF#	8AL	4d	4dd
.	8c	.	.
4GG	8c	4g	4dd
.	[8B-J	.	.
4C	8B-L]	8g	4ee-
.	16A-L	4cc	.
.	16GJJ	.	.
4D	4F	.	4dd
.	.	8b	.
=13	=13	=13	=13
4E-	8GL	8ccL	4cc
.	8AnXJ	8f#J	.
8DL	8B-XL	4g	8b-XL
8CJ	8e-J	.	8aJ
4D	4.d	4g	2a
4DD	.	4f#	.
.	8c	.	.
=14	=14	=14	=14
1GG;	1B;	1d;	1g;
==	==	==	==
*-	*-	*-	*-
!!!hum2abc: -Q ''
!!!title: @{PC#}. @{OTL@@DE}
!!!YOR1: 371 vierstimmige Choralges&auml;nge von Johann Sebastian Bach, 
!!!YOR2: 4th ed. by Alfred D&ouml;rffel (Leipzig: Breitkopf und H&auml;rtel, 
!!!YOR2: c.1875). 178 pp. Plate "V.A.10".  reprint: J.S. Bach, 371 Four-Part 
!!!YOR4: Chorales (New York: Associated Music Publishers, Inc., c.1940).
!!!SMS: B&H, 4th ed, Alfred D&ouml;rffel, c.1875, plate V.A.10
!!!EED:  Craig Stuart Sapp
!!!EEV:  2009/05/22
